src/extras-openmoji/emergency/E0A9.svg

<svg id="emoji" viewBox="0 0 72 72" xmlns="http://www.w3.org/2000/svg">
  <g id="grid">
    <path fill="#b3b3b3" d="M68,4V68H4V4H68m4-4H0V72H72V0Z"/>
    <path fill="none" stroke="#00a5ff" stroke-miterlimit="10" stroke-width="0.1" d="M12.923,10.9583H59.0769A1.9231,1.9231,0,0,1,61,12.8814V59.0352a1.9231,1.9231,0,0,1-1.9231,1.9231H12.9231A1.9231,1.9231,0,0,1,11,59.0352V12.8813A1.923,1.923,0,0,1,12.923,10.9583Z"/>
    <rect x="16" y="4" rx="2.2537" ry="2.2537" width="40" height="64" fill="none" stroke="#00a5ff" stroke-miterlimit="10" stroke-width="0.1"/>
    <rect x="16" y="4" rx="2.2537" ry="2.2537" width="40" height="64" transform="translate(72) rotate(90)" fill="none" stroke="#00a5ff" stroke-miterlimit="10" stroke-width="0.1"/>
    <circle cx="36" cy="36" r="29" fill="none" stroke="#00a5ff" stroke-miterlimit="10" stroke-width="0.1"/>
  </g>
  <g id="color">
    <path fill="#d22f27" d="M52.5733,29.11c0-9.3149-7.1338-16.8923-15.9034-16.8923S20.7665,19.795,20.7665,29.114c.0027.4653.2238,11.6088,12.9612,31.2452a3.4626,3.4626,0,0,0,2.8174,1.9343c1.8394,0,3.0941-2.0266,3.2162-2.2327C52.58,40.4135,52.58,29.5534,52.5733,29.11ZM36.67,35.9135a7.0826,7.0826,0,1,1,7.0826-7.0826A7.0907,7.0907,0,0,1,36.67,35.9135Z"/>
    <path fill="#ea5a47" d="M52.5733,29.11c0-9.3149-7.1338-16.8923-15.9034-16.8923a14.96,14.96,0,0,0-3.8645.5254c8.3948.4493,15.0989,7.8225,15.0989,16.849.0068.4436.0068,11.3036-12.812,30.9509a5.8543,5.8543,0,0,1-.5865.7972,2.8549,2.8549,0,0,0,2.0393.9534c1.8394,0,3.0941-2.0266,3.2162-2.2327C52.58,40.4135,52.58,29.5534,52.5733,29.11Z"/>
  </g>
  <g id="line">
    <path fill="none" stroke="#000" stroke-linecap="round" stroke-linejoin="round" stroke-width="2" d="M36.5451,62.2935a3.4628,3.4628,0,0,1-2.8174-1.9343C20.99,40.7228,20.7692,29.5793,20.7665,29.114c0-9.3191,7.1337-16.8964,15.9034-16.8964S52.5733,19.7949,52.5733,29.11c.0068.4436.0068,11.3036-12.812,30.9509C39.6392,60.2669,38.3845,62.2935,36.5451,62.2935Z"/>
    <path fill="none" stroke="#000" stroke-linecap="round" stroke-linejoin="round" stroke-width="2" d="M36.67,35.9135a7.0826,7.0826,0,1,1,7.0827-7.0826A7.0906,7.0906,0,0,1,36.67,35.9135Z"/>
  </g>
</svg>

<svg viewBox="0 0 72 72" xmlns="http://www.w3.org/2000/svg"><path fill="#b3b3b3" d="M68 4v64H4V4h64m4-4H0v72h72V0z"/><path fill="none" stroke="#00a5ff" stroke-miterlimit="10" stroke-width=".1" d="M12.923 10.958h46.154A1.923 1.923 0 0161 12.881v46.154a1.923 1.923 0 01-1.923 1.923H12.923A1.923 1.923 0 0111 59.035V12.881a1.923 1.923 0 011.923-1.923z"/><rect x="16" y="4" rx="2.254" ry="2.254" width="40" height="64" fill="none" stroke="#00a5ff" stroke-miterlimit="10" stroke-width=".1"/><rect x="16" y="4" rx="2.254" ry="2.254" width="40" height="64" transform="rotate(90 36 36)" fill="none" stroke="#00a5ff" stroke-miterlimit="10" stroke-width=".1"/><circle cx="36" cy="36" r="29" fill="none" stroke="#00a5ff" stroke-miterlimit="10" stroke-width=".1"/><g stroke-linecap="round" stroke-miterlimit="10" stroke-width="6" stroke="#fff" fill="none" stroke-linejoin="round"><path d="M36.545 62.294a3.463 3.463 0 01-2.817-1.935C20.99 40.723 20.769 29.58 20.766 29.114c0-9.32 7.134-16.896 15.904-16.896s15.903 7.577 15.903 16.892c.007.444.007 11.304-12.812 30.95-.122.207-1.377 2.233-3.216 2.233z"/><path d="M36.67 35.913a7.083 7.083 0 117.083-7.082 7.09 7.09 0 01-7.083 7.082z"/></g><path fill="#d22f27" d="M52.573 29.11c0-9.315-7.133-16.892-15.903-16.892s-15.904 7.577-15.904 16.896c.003.465.224 11.609 12.962 31.245a3.463 3.463 0 002.817 1.934c1.84 0 3.094-2.026 3.216-2.232C52.58 40.413 52.58 29.553 52.573 29.11zM36.67 35.913a7.083 7.083 0 117.083-7.082 7.09 7.09 0 01-7.083 7.082z"/><path fill="#ea5a47" d="M52.573 29.11c0-9.315-7.133-16.892-15.903-16.892a14.96 14.96 0 00-3.865.525c8.395.45 15.1 7.823 15.1 16.85.006.443.006 11.303-12.813 30.95a5.854 5.854 0 01-.586.797 2.855 2.855 0 002.04.954c1.839 0 3.093-2.027 3.215-2.233C52.58 40.413 52.58 29.553 52.573 29.11z"/><g fill="none" stroke="#000" stroke-linecap="round" stroke-linejoin="round" stroke-width="2"><path d="M36.545 62.294a3.463 3.463 0 01-2.817-1.935C20.99 40.723 20.769 29.58 20.766 29.114c0-9.32 7.134-16.896 15.904-16.896s15.903 7.577 15.903 16.892c.007.444.007 11.304-12.812 30.95-.122.207-1.377 2.233-3.216 2.233z"/><path d="M36.67 35.913a7.083 7.083 0 117.083-7.082 7.09 7.09 0 01-7.083 7.082z"/></g></svg>
